icons/screenshot-2-fill.svg

<svg xmlns="http://www.w3.org/2000/svg" width="24" height="24" fill="none"><g clip-path="url(#a)"><g><path fill="#121212" d="M3 3H5V5H3V3ZM7 3H9V5H7V3ZM11 3H13V5H11V3ZM15 3H17V5H15V3ZM19 3H21V5H19V3ZM19 7H21V9H19V7ZM3 19H5V21H3V19ZM3 15H5V17H3V15ZM3 11H5V13H3V11ZM3 7H5V9H3V7ZM10.667 11L11.703 9.445C11.7943 9.30808 11.9181 9.19583 12.0632 9.11821C12.2084 9.04058 12.3704 8.99998 12.535 9H15.465C15.6296 8.99998 15.7916 9.04058 15.9368 9.11821C16.0819 9.19583 16.2057 9.30808 16.297 9.445L17.333 11H20C20.2652 11 20.5196 11.1054 20.7071 11.2929C20.8946 11.4804 21 11.7348 21 12V20C21 20.2652 20.8946 20.5196 20.7071 20.7071C20.5196 20.8946 20.2652 21 20 21H8C7.73478 21 7.48043 20.8946 7.29289 20.7071C7.10536 20.5196 7 20.2652 7 20V12C7 11.7348 7.10536 11.4804 7.29289 11.2929C7.48043 11.1054 7.73478 11 8 11H10.667ZM14 18C14.5304 18 15.0391 17.7893 15.4142 17.4142C15.7893 17.0391 16 16.5304 16 16C16 15.4696 15.7893 14.9609 15.4142 14.5858C15.0391 14.2107 14.5304 14 14 14C13.4696 14 12.9609 14.2107 12.5858 14.5858C12.2107 14.9609 12 15.4696 12 16C12 16.5304 12.2107 17.0391 12.5858 17.4142C12.9609 17.7893 13.4696 18 14 18Z"/></g></g><defs><clipPath id="a"><rect width="24" height="24" fill="white"/></clipPath></defs></svg>

<svg width="24" height="24" fill="none" xmlns="http://www.w3.org/2000/svg"><g clip-path="url(#a)"><path d="M3 3h2v2H3V3Zm4 0h2v2H7V3Zm4 0h2v2h-2V3Zm4 0h2v2h-2V3Zm4 0h2v2h-2V3Zm0 4h2v2h-2V7ZM3 19h2v2H3v-2Zm0-4h2v2H3v-2Zm0-4h2v2H3v-2Zm0-4h2v2H3V7Zm7.667 4 1.036-1.555A1 1 0 0 1 12.535 9h2.93a1 1 0 0 1 .832.445L17.333 11H20a1 1 0 0 1 1 1v8a1 1 0 0 1-1 1H8a1 1 0 0 1-1-1v-8a1 1 0 0 1 1-1h2.667ZM14 18a2 2 0 1 0 0-4 2 2 0 0 0 0 4Z" /></g><defs><clipPath id="a"><path fill="#fff" d="M0 0h24v24H0z"/></clipPath></defs></svg>
